static/images/pieces/synochess/xq-red/bC.svg

<svg height="92" width="92" xmlns="http://www.w3.org/2000/svg"><g><g transform="matrix(1.0787109 -.03581435 -.30554584 1.3302797 14.257278 -4.545659)"><g fill="#600" stroke="#600" stroke-miterlimit="10" transform="matrix(-.60441568826 -.02252910637 -.01886598436 .50614059186 752.09163053286 -100.5488605292)"><path d="m1213.1984 288.17181-92.5944 36.18455s-8.0242 8.93392-2.8931 21.42533l.063.30502.063.30501c4.9395 12.55852 16.4997 12.34667 16.4997 12.34667 37.0981-28.13429 66.149-38.44852 87.0241-50.31775-.1921-4.06466-1.8458-7.47907-2.8249-11.19359-1.3824-3.1949-2.9322-6.3153-5.3374-9.05516z" stroke-width="2.6533"/><ellipse cx="1017.132" cy="677.90155" rx="3.753881" ry="3.661743" stroke-width="3.0061" transform="matrix(.95110508 -.30886749 .22204229 .97503704 0 0)"/></g><path d="m11.706099 19.768474 1.412258-1.872553 55.282852 20.400544c2.731671 3.252536 2.365337 5.472402 2.342942 7.806917-.707496-.400091-2.266476-6.230598-3.897249-6.783189-23.111055-7.831236-37.850159-15.000491-51.934061-19.042856-1.109028-.318313-2.11215-.210049-3.206742-.508863z" fill="#fff"/></g><g transform="translate(6.85428 -14.733683)"><path d="m20.352014 80.202154 5.934005-16.057908c3.08047-8.336006 30.532402-7.869865 33.592549 0l6.303385 16.210588v7.348276h-45.984943z" fill="#600" stroke="#600" stroke-width="2.92994"/><path d="m27.095975 62.432107c4.262199-6.634497 27.125173-5.668644 31.150448-.296882 3.46909 4.629529 5.153872 10.533564 7.483048 15.977318.109606-.109606-6.750017-13.776689-11.509014-16.245814-3.938139-2.043237-11.134697-3.263227-16.260784-2.397791-5.862044.989687-10.863698 2.963169-10.863698 2.963169z" fill="#fff"/></g></g></svg>

<?xml version="1.0" encoding="UTF-8" standalone="no"?>
<svg
   xmlns:dc="http://purl.org/dc/elements/1.1/"
   xmlns:cc="http://creativecommons.org/ns#"
   xmlns:rdf="http://www.w3.org/1999/02/22-rdf-syntax-ns#"
   xmlns:svg="http://www.w3.org/2000/svg"
   xmlns="http://www.w3.org/2000/svg"
   xmlns:sodipodi="http://sodipodi.sourceforge.net/DTD/sodipodi-0.dtd"
   xmlns:inkscape="http://www.inkscape.org/namespaces/inkscape"
   width="92"
   height="92"
   id="svg2"
   version="1.1"
   inkscape:version="1.0.1 (3bc2e813f5, 2020-09-07)"
   sodipodi:docname="bC.svg">
  <metadata
     id="metadata12">
    <rdf:RDF>
      <cc:Work
         rdf:about="">
        <dc:format>image/svg+xml</dc:format>
        <dc:type
           rdf:resource="http://purl.org/dc/dcmitype/StillImage" />
        <dc:title></dc:title>
      </cc:Work>
    </rdf:RDF>
  </metadata>
  <defs
     id="defs10">
    <filter
       height="1.5"
       width="1.5"
       y="0"
       x="0"
       id="f1"
       color-interpolation-filters="sRGB">
      <feOffset
         id="feOffset3039"
         dy="0"
         dx="1"
         in="SourceAlpha"
         result="offOut" />
      <feGaussianBlur
         id="feGaussianBlur3041"
         stdDeviation="1"
         in="offOut"
         result="blurOut" />
      <!--
      <feBlend in="SourceGraphic" in2="blurOut" mode="normal" />
-->
    </filter>
    <linearGradient
       y2="1"
       x2="0"
       y1="0"
       x1="0"
       id="grad1">
      <stop
         id="stop3034"
         style="stop-color:rgb(255,255,255);stop-opacity:0.6"
         offset="20%" />
      <stop
         id="stop3036"
         style="stop-color:rgb(220,0,0);stop-opacity:0.5"
         offset="50%" />
    </linearGradient>
    <linearGradient
       y2="1"
       x2="0"
       y1="0"
       x1="0"
       id="grad0">
      <stop
         id="stop3029"
         style="stop-color:rgb(0,0,0);stop-opacity:0.3"
         offset="20%" />
      <stop
         id="stop3031"
         style="stop-color:rgb(0,0,0);stop-opacity:0.6"
         offset="100%" />
    </linearGradient>
    <inkscape:path-effect
       effect="mirror_symmetry"
       start_point="274.21267,350.55066"
       end_point="273.50284,477.30227"
       center_point="273.85776,413.92646"
       id="path-effect4557-0-4"
       is_visible="true"
       mode="free"
       discard_orig_path="false"
       fuse_paths="true"
       oposite_fuse="false" />
    <filter
       style="color-interpolation-filters:sRGB;"
       inkscape:label="Drop Shadow"
       id="filter19100">
      <feFlood
         flood-opacity="1"
         flood-color="rgb(91,93,90)"
         result="flood"
         id="feFlood19090" />
      <feComposite
         in="flood"
         in2="SourceGraphic"
         operator="in"
         result="composite1"
         id="feComposite19092" />
      <feGaussianBlur
         in="composite1"
         stdDeviation="0"
         result="blur"
         id="feGaussianBlur19094" />
      <feOffset
         dx="0"
         dy="4"
         result="offset"
         id="feOffset19096" />
      <feComposite
         in="SourceGraphic"
         in2="offset"
         operator="over"
         result="composite2"
         id="feComposite19098" />
    </filter>
    <clipPath
       clipPathUnits="userSpaceOnUse"
       id="clipPath4506">
      <rect
         style="opacity:1;fill:#d40000;fill-opacity:1;stroke:#000000;stroke-width:0.19755;stroke-linecap:square;stroke-linejoin:miter;stroke-miterlimit:4;stroke-dasharray:none;stroke-opacity:1;paint-order:normal"
         id="rect4508"
         width="33.686436"
         height="15.466102"
         x="7.6271186"
         y="3.6016948" />
    </clipPath>
    <linearGradient
       id="0-9"
       x1="21.190001"
       y1="37.551998"
       x2="77.739998"
       y2="37.429001"
       gradientUnits="userSpaceOnUse">
      <stop
         stop-color="#fff"
         id="stop4569" />
      <stop
         offset="1"
         stop-color="#fff"
         stop-opacity="0"
         id="stop4571" />
    </linearGradient>
    <linearGradient
       gradientTransform="translate(-1.5971249,48.408736)"
       id="0-4"
       x1="21.253"
       y1="37.591999"
       x2="77.639999"
       y2="37.469002"
       gradientUnits="userSpaceOnUse">
      <stop
         stop-color="#fff"
         id="stop5894" />
      <stop
         offset="1"
         stop-color="#fff"
         stop-opacity="0"
         id="stop5896" />
    </linearGradient>
  </defs>
  <sodipodi:namedview
     pagecolor="#ffffff"
     bordercolor="#666666"
     borderopacity="1"
     objecttolerance="10"
     gridtolerance="10"
     guidetolerance="10"
     inkscape:pageopacity="0"
     inkscape:pageshadow="2"
     inkscape:window-width="3840"
     inkscape:window-height="2050"
     id="namedview8"
     showgrid="false"
     inkscape:zoom="2.6222222"
     inkscape:cx="-213.53598"
     inkscape:cy="44.95829"
     inkscape:window-x="-12"
     inkscape:window-y="-12"
     inkscape:window-maximized="1"
     inkscape:current-layer="layer2"
     fit-margin-top="0"
     fit-margin-left="0"
     fit-margin-right="0"
     fit-margin-bottom="0"
     inkscape:pagecheckerboard="false"
     inkscape:document-rotation="0" />
  <g
     inkscape:groupmode="layer"
     id="layer1"
     inkscape:label="Background"
     style="display:inline" />
  <g
     inkscape:groupmode="layer"
     id="layer2"
     inkscape:label="Symbol"
     style="display:inline">
    <g
       id="g3570"
       transform="translate(2.8441304,0.9801753)">
      <g
         id="g3558"
         transform="translate(-3.1010827,-2.561764)">
        <g
           id="g1361"
           transform="matrix(1.0787109,-0.03581435,-0.30554584,1.3302797,14.514231,-2.9640698)">
          <g
             transform="matrix(-0.65805253,0,0,0.55105634,814.78402,-130.76487)"
             id="g4916">
            <g
               id="g873"
               transform="matrix(0.91849155,-0.04088349,0.02866942,0.91849155,95.269582,54.832886)">
              <path
                 id="path47"
                 d="m 1213.1984,288.17181 -92.5944,36.18455 c 0,0 -8.0242,8.93392 -2.8931,21.42533 l 0.063,0.30502 0.063,0.30501 c 4.9395,12.55852 16.4997,12.34667 16.4997,12.34667 37.0981,-28.13429 66.149,-38.44852 87.0241,-50.31775 -0.1921,-4.06466 -1.8458,-7.47907 -2.8249,-11.19359 -1.3824,-3.1949 -2.9322,-6.3153 -5.3374,-9.05516 z"
                 style="fill:#660000;fill-opacity:1;stroke:#660000;stroke-width:2.6533;stroke-miterlimit:10;stroke-opacity:1"
                 inkscape:connector-curvature="0"
                 sodipodi:nodetypes="ccccccccc" />
              <ellipse
                 transform="matrix(0.95110508,-0.30886749,0.22204229,0.97503704,0,0)"
                 ry="3.6617434"
                 rx="3.753881"
                 stroke-miterlimit="10"
                 cx="1017.132"
                 cy="677.90155"
                 id="circle53"
                 style="fill:#660000;fill-opacity:1;stroke:#660000;stroke-width:3.0061;stroke-miterlimit:10;stroke-opacity:1" />
            </g>
          </g>
          <path
             style="fill:#ffffff;stroke:none;stroke-width:1.5px;stroke-linecap:butt;stroke-linejoin:miter;stroke-opacity:1"
             d="m 11.706099,19.768474 1.412258,-1.872553 55.282852,20.400544 c 2.731671,3.252536 2.365337,5.472402 2.342942,7.806917 C 70.036655,45.703291 68.477675,39.872784 66.846902,39.320193 43.735847,31.488957 28.996743,24.319702 14.912841,20.277337 13.803813,19.959024 12.800691,20.067288 11.706099,19.768474 Z"
             id="path7002"
             inkscape:connector-curvature="0"
             sodipodi:nodetypes="ccccssc" />
        </g>
      </g>
      <g
         id="g3530"
         transform="translate(4.0101499,-15.713858)">
        <path
           style="fill:#660000;fill-opacity:1;stroke:#660000;stroke-width:2.92994;stroke-linecap:butt;stroke-linejoin:miter;stroke-miterlimit:4;stroke-dasharray:none;stroke-opacity:1"
           d="m 20.352014,80.202154 5.934005,-16.057908 c 3.08047,-8.336006 30.532402,-7.869865 33.592549,0 l 6.303385,16.210588 V 87.70311 H 20.19701 Z"
           id="path10686"
           inkscape:connector-curvature="0"
           sodipodi:nodetypes="csscccc" />
        <path
           style="fill:#ffffff;stroke:none;stroke-width:1px;stroke-linecap:butt;stroke-linejoin:miter;stroke-opacity:1"
           d="m 27.095975,62.432107 c 4.262199,-6.634497 27.125173,-5.668644 31.150448,-0.296882 3.46909,4.629529 5.153872,10.533564 7.483048,15.977318 C 65.839077,78.002937 58.979454,64.335854 54.220457,61.866729 50.282318,59.823492 43.08576,58.603502 37.959673,59.468938 32.097629,60.458625 27.095975,62.432107 27.095975,62.432107 Z"
           id="path3526"
           sodipodi:nodetypes="cscssc" />
      </g>
    </g>
  </g>
</svg>
